X:1
T:Greenland Man's Tune, The
R:hornpipe
M:4/4
L:1/8
K:A
|:d<B c<A (3BcB E2|F<G A<G F>D D2|d<B c<A (3BcB E2|G<A B<G A2A2:|
|:B2 B<c d2 d<B|A2 A<F D<E F>A|B2 B<c d2 d<B|1A<F (3FED E4:|2A<F (3FED E3c|]
</abc>
